public/assets/footer/youtube-light.svg

<svg fill="none" height="36" viewBox="0 0 37 36" width="37" xmlns="http://www.w3.org/2000/svg"><path d="m30.3522 11.7104c-.1409-.5247-.4171-1.0033-.8011-1.3877-.384-.38443-.8622-.66128-1.3868-.80283-1.9311-.51932-9.6718-.51932-9.6718-.51932s-7.7407 0-9.67173.51656c-.52484.14109-1.0033.41779-1.38735.80229s-.66016.8633-.80061 1.3882c-.5166 1.9337-.5166 5.9667-.5166 5.9667s0 4.033.5166 5.9639c.28455 1.0662 1.12437 1.906 2.18796 2.1905 1.93103.5193 9.67173.5193 9.67173.5193s7.7407 0 9.6718-.5193c1.0663-.2845 1.9034-1.1243 2.1879-2.1905.5166-1.9309.5166-5.9639.5166-5.9639s0-4.033-.5166-5.9639zm-14.3184 9.6654v-7.4031l6.4092 3.674z" stroke="#1e1e1e" stroke-width="1.286"/></svg>

<svg xmlns="http://www.w3.org/2000/svg" width="37" height="36" fill="none" viewBox="0 0 37 36"><path stroke="#1E1E1E" stroke-width="1.286" d="M30.3522 11.7104C30.2113 11.1857 29.9351 10.7071 29.5511 10.3227C29.1671 9.93827 28.6889 9.66142 28.1643 9.51987C26.2332 9.00055 18.4925 9.00055 18.4925 9.00055C18.4925 9.00055 10.7518 9.00055 8.82077 9.51711C8.29593 9.6582 7.81747 9.9349 7.43342 10.3194C7.04937 10.7039 6.77326 11.1827 6.63281 11.7076C6.11621 13.6413 6.11621 17.6743 6.11621 17.6743C6.11621 17.6743 6.11621 21.7073 6.63281 23.6382C6.91736 24.7044 7.75718 25.5442 8.82077 25.8287C10.7518 26.348 18.4925 26.348 18.4925 26.348C18.4925 26.348 26.2332 26.348 28.1643 25.8287C29.2306 25.5442 30.0677 24.7044 30.3522 23.6382C30.8688 21.7073 30.8688 17.6743 30.8688 17.6743C30.8688 17.6743 30.8688 13.6413 30.3522 11.7104ZM16.0338 21.3758V13.9727L22.443 17.6467L16.0338 21.3758Z"/></svg>
